X: 11573
T: BESS THE GAWKIE
O: Scottish air.--Old set.
Q: "Moderate."
%R: reel
B: W. Hamilton "Universal Tune-Book" Vol. 1 Glasgow 1844 p.157 #3
S: http://imslp.org/wiki/Hamilton's_Universal_Tune-Book_(Various)
Z: 2016 John Chambers <jc:trillian.mit.edu>
M: C
L: 1/8
K: F
%%slurgraces yes
%%graceslurs yes
% - - - - - - - - - - - - - - - - - - - - - - - - -
|:\
d3f c2(AB) | (cd/e/) (fe/d/) {d}c3B |\
A2(GF)  f3e | (dc)(BA) G2(AB) |\
c2f2 c2(A>B) | c2(f>g) a2F2 |\
A2c2 b2a2 | {f}g4 f2z2 :|
|:\
(fg)(ag) (fg)(ag) | (fagf) (e>fg)c |\
g3f (fe)(ed) | (dc) (cd/e/) f2 zf |\
(fa)(gf) f3f | (fa)(gf) (f>g)(aF) |\
A2c2 b2a2 | {a}g4 f2z2 :|
% - - - - - - - - - - - - - - - - - - - - - - - - -

%%sep 1 1 500
%%sep 1 1 500

